X: 12
T: Paddy O'Rafferty
R: jig
M: 6/8
L: 1/8
K: Dmix
|: DBA A2 D | GBA AGE | DBA A2 E | GBA GED :||: ~B3 dBd | efg gfe | ~d3 BAG | ABA GED :|


Tune 741	Setting 13826

